app/dist/common/images/superior-industries-international.svg

<svg height="18" viewBox="0 0 18 18" width="18" xmlns="http://www.w3.org/2000/svg" xmlns:xlink="http://www.w3.org/1999/xlink"><linearGradient id="a" gradientUnits="userSpaceOnUse" x1="3.92" x2="11.28" y1="7.28" y2="10.24"><stop offset="0" stop-color="#1c85c7"/><stop offset=".42" stop-color="#4f81c0"/><stop offset="1" stop-color="#0e6aab"/></linearGradient><linearGradient id="b" gradientUnits="userSpaceOnUse" x1="8.74" x2="7.31" y1="8.17" y2="4.63"><stop offset=".49" stop-color="#a2dcff"/><stop offset="1" stop-color="#314e78"/></linearGradient><linearGradient id="c" gradientUnits="userSpaceOnUse" x1="14.08" x2="6.72" y1="10.72" y2="7.76"><stop offset=".06" stop-color="#ababab"/><stop offset=".5" stop-color="#f9ffff"/><stop offset="1" stop-color="#b9babc"/></linearGradient><path d="m0 0h18v18h-18z" fill="#f0f3fa"/><path d="m3 8.43 6.52 3.13c.62-.1 1.42-.74 1.75-1.05l-6.27-3.01c.6-1.15 1.7-2.76 3.98-2.76a4.3 4.3 0 0 1 3.46 1.83h1.98c-.52-1.2-2.35-3.57-5.44-3.57-4.33 0-5.79 3.62-5.98 5.43z" fill="url(#a)"/><path d="m3.02 8.44.29-.11c.27-1.68 1.77-5.04 5.58-5.04a6.7 6.7 0 0 1 4.9 2.23 6.02 6.02 0 0 0 -4.81-2.52c-4.33 0-5.79 3.62-5.98 5.43h.02z" fill="#92c3e1"/><path d="m12.45 6.57.13-.27c-1.35-1.63-2.7-1.76-3.49-1.76a4.49 4.49 0 0 0 -4.46 3.09l6.05 2.88h.58l-6.24-3.01c.58-1.15 1.68-2.76 3.96-2.76a4.3 4.3 0 0 1 3.46 1.83z" fill="url(#b)"/><path d="m9.52 11.56-6.52-3.13.01-.11h.3l6.32 3.04-.03.19z" fill="#013b69"/><path d="m15 9.57-6.52-3.13c-.62.1-1.42.74-1.75 1.05l6.27 3.01c-.59 1.15-1.68 2.76-3.97 2.76a4.3 4.3 0 0 1 -3.46-1.83h-1.99c.52 1.2 2.35 3.57 5.44 3.57 4.33 0 5.79-3.62 5.98-5.43z" fill="url(#c)"/><path d="m14.98 9.56-.29.11c-.27 1.68-1.77 5.04-5.58 5.04a6.7 6.7 0 0 1 -4.9-2.23 6.02 6.02 0 0 0 4.81 2.52c4.33 0 5.79-3.62 5.98-5.43h-.02z" fill="#6f7072"/><path d="m5.55 11.43-.13.27c1.35 1.63 2.7 1.76 3.49 1.76 2.9 0 4.18-2.06 4.46-3.09l-6.05-2.87h-.58l6.25 3.01c-.59 1.15-1.68 2.77-3.97 2.77a4.3 4.3 0 0 1 -3.46-1.84z" fill="#a0a1a3"/><path d="m8.48 6.44 6.52 3.13-.01.11h-.3l-6.32-3.04.03-.19z" fill="#f4f4f4"/></svg>

<!-- by TradingView --><svg width="18" height="18" viewBox="0 0 18 18" xmlns="http://www.w3.org/2000/svg"><path fill="#F0F3FA" d="M0 0h18v18H0z"/><path d="m3 8.43 6.52 3.13c.62-.1 1.42-.74 1.75-1.05L5 7.5C5.6 6.35 6.7 4.74 8.98 4.74a4.3 4.3 0 0 1 3.46 1.83h1.98C13.9 5.37 12.07 3 8.98 3 4.65 3 3.19 6.62 3 8.43Z" fill="url(#a4dqfdn22)"/><path d="m3.02 8.44.29-.11c.27-1.68 1.77-5.04 5.58-5.04a6.7 6.7 0 0 1 4.9 2.23A6.02 6.02 0 0 0 8.98 3C4.65 3 3.19 6.62 3 8.43h.02Z" fill="#92C3E1"/><path d="m12.45 6.57.13-.27c-1.35-1.63-2.7-1.76-3.49-1.76a4.49 4.49 0 0 0-4.46 3.09l6.05 2.88h.58L5.02 7.5C5.6 6.35 6.7 4.74 8.98 4.74a4.3 4.3 0 0 1 3.46 1.83Z" fill="url(#b4dqfdn22)"/><path d="M9.52 11.56 3 8.43l.01-.11h.3l6.32 3.04-.03.19-.08.01Z" fill="#013B69"/><path d="M15 9.57 8.48 6.44c-.62.1-1.42.74-1.75 1.05L13 10.5c-.59 1.15-1.68 2.76-3.97 2.76a4.3 4.3 0 0 1-3.46-1.83H3.58C4.1 12.63 5.93 15 9.02 15c4.33 0 5.79-3.62 5.98-5.43Z" fill="url(#c4dqfdn22)"/><path d="m14.98 9.56-.29.11c-.27 1.68-1.77 5.04-5.58 5.04a6.7 6.7 0 0 1-4.9-2.23A6.02 6.02 0 0 0 9.02 15c4.33 0 5.79-3.62 5.98-5.43h-.02Z" fill="#6F7072"/><path d="m5.55 11.43-.13.27c1.35 1.63 2.7 1.76 3.49 1.76 2.9 0 4.18-2.06 4.46-3.09L7.32 7.5h-.58l6.25 3.01c-.59 1.15-1.68 2.77-3.97 2.77a4.3 4.3 0 0 1-3.46-1.84Z" fill="#A0A1A3"/><path d="M8.48 6.44 15 9.57l-.01.11h-.3L8.37 6.64l.03-.19.08-.01Z" fill="#F4F4F4"/><defs><linearGradient id="a4dqfdn22" x1="3.92" y1="7.28" x2="11.28" y2="10.24" gradientUnits="userSpaceOnUse"><stop stop-color="#1C85C7"/><stop offset=".42" stop-color="#4F81C0"/><stop offset="1" stop-color="#0E6AAB"/></linearGradient><linearGradient id="b4dqfdn22" x1="8.74" y1="8.17" x2="7.31" y2="4.63" gradientUnits="userSpaceOnUse"><stop offset=".49" stop-color="#A2DCFF"/><stop offset="1" stop-color="#314E78"/></linearGradient><linearGradient id="c4dqfdn22" x1="14.08" y1="10.72" x2="6.72" y2="7.76" gradientUnits="userSpaceOnUse"><stop offset=".06" stop-color="#ABABAB"/><stop offset=".5" stop-color="#F9FFFF"/><stop offset="1" stop-color="#B9BABC"/></linearGradient></defs></svg>
